images/bars.svg

<svg width="16" height="11" viewBox="0 0 16 11" fill="none" xmlns="http://www.w3.org/2000/svg">
<path d="M0.500007 10.539C0.358007 10.539 0.23934 10.4907 0.144007 10.394C0.0486736 10.2973 0.000673516 10.1783 6.84931e-06 10.037C-0.000659817 9.89567 0.0473402 9.777 0.144007 9.681C0.240674 9.585 0.35934 9.53733 0.500007 9.538H15.5C15.642 9.538 15.7607 9.586 15.856 9.682C15.952 9.778 16 9.897 16 10.039C16 10.181 15.952 10.2997 15.856 10.395C15.76 10.4903 15.6413 10.538 15.5 10.538L0.500007 10.539ZM0.500007 5.769C0.358007 5.769 0.23934 5.721 0.144007 5.625C0.0486736 5.529 0.000673516 5.41 6.84931e-06 5.268C-0.000659817 5.126 0.0473402 5.00733 0.144007 4.912C0.240674 4.81667 0.35934 4.769 0.500007 4.769H15.5C15.642 4.769 15.7607 4.817 15.856 4.913C15.9513 5.009 15.9993 5.128 16 5.27C16.0007 5.412 15.9527 5.53067 15.856 5.626C15.7593 5.72133 15.6407 5.769 15.5 5.769H0.500007ZM0.500007 0.999C0.358007 0.999 0.23934 0.951333 0.144007 0.856C0.0480069 0.76 6.84931e-06 0.641 6.84931e-06 0.499C6.84931e-06 0.357 0.0480069 0.238333 0.144007 0.143C0.240007 0.0476668 0.358674 0 0.500007 0H15.5C15.642 0 15.7607 0.0480001 15.856 0.144C15.9513 0.24 15.9993 0.358333 16 0.499C16.0007 0.639667 15.9527 0.758333 15.856 0.855C15.7593 0.951667 15.6407 0.999667 15.5 0.999H0.500007Z" fill="black"/>
</svg>

<svg width="16" height="11" fill="none" xmlns="http://www.w3.org/2000/svg"><path d="M.5 10.539a.492.492 0 01-.5-.502.48.48 0 01.144-.356.482.482 0 01.356-.143h15c.142 0 .26.048.356.144a.485.485 0 01.144.357c0 .142-.048.26-.144.356a.486.486 0 01-.356.143l-15 .001zm0-4.77a.49.49 0 01-.5-.501.487.487 0 01.5-.499h15a.49.49 0 01.5.501.487.487 0 01-.5.499H.5zm0-4.77A.483.483 0 01.144.856.485.485 0 010 .499C0 .357.048.239.144.143A.485.485 0 01.5 0h15a.488.488 0 01.5.499.48.48 0 01-.144.356.48.48 0 01-.356.144H.5z" fill="#000"/></svg>
